;Generated with Cura_SteamEngine 15.01
; Default start code
G28 ; Home extruder
G29
G1 Z15 F100
M107 ; Turn off fan
G90 ; Absolute positioning
M82 ; Extruder in absolute mode
M190 S40
; Activate all used extruder
M104 T0 S200
G92 E0 ; Reset extruder position
; Wait for all used extruders to reach temperature
M109 T0 S200
;Layer count: 200
;LAYER:0
M107
G0 F9000 X142.639 Y142.639 Z0.200
;TYPE:SKIRT
G1 F1800 X143.393 Y141.966 E0.03353
G1 X144.214 Y141.383 E0.06694
G1 X145.095 Y140.897 E0.10032
G1 X146.028 Y140.509 E0.13384
G1 X147.000 Y140.230 E0.16739
G1 X148.126 Y140.038 E0.20529
G1 X180.937 Y140.013 E1.29386
G1 X181.969 Y140.054 E1.32813
G1 X183.002 Y140.231 E1.36290
G1 X183.971 Y140.509 E1.39634
G1 X184.904 Y140.897 E1.42987
G1 X185.785 Y141.383 E1.46325
G1 X186.606 Y141.966 E1.49666
G1 X187.360 Y142.639 E1.53019
G1 X188.033 Y143.393 E1.56372
G1 X188.616 Y144.214 E1.59712
G1 X189.102 Y145.095 E1.63051
G1 X189.490 Y146.028 E1.66403
G1 X189.769 Y147.000 E1.69758
G1 X189.961 Y148.126 E1.73548
G1 X189.987 Y180.941 E2.82418
G1 X189.945 Y181.973 E2.85845
G1 X189.768 Y183.002 E2.89309
G1 X189.490 Y183.971 E2.92653
G1 X189.102 Y184.904 E2.96006
G1 X188.616 Y185.785 E2.99344
G1 X188.033 Y186.606 E3.02685
G1 X187.360 Y187.360 E3.06038
G1 X186.606 Y188.033 E3.09391
G1 X185.785 Y188.616 E3.12731
G1 X184.904 Y189.102 E3.16070
G1 X183.971 Y189.490 E3.19422
G1 X182.999 Y189.769 E3.22777
G1 X181.873 Y189.961 E3.26567
G1 X149.059 Y189.987 E4.35434
G1 X148.027 Y189.945 E4.38860
G1 X146.997 Y189.768 E4.42328
G1 X146.028 Y189.490 E4.45672
G1 X145.095 Y189.102 E4.49025
G1 X144.214 Y188.616 E4.52363
G1 X143.393 Y188.033 E4.55703
G1 X142.639 Y187.360 E4.59057
G1 X141.966 Y186.606 E4.62410
G1 X141.383 Y185.785 E4.65750
G1 X140.897 Y184.904 E4.69088
G1 X140.509 Y183.971 E4.72441
G1 X140.230 Y182.999 E4.75796
G1 X140.038 Y181.873 E4.79586
G1 X140.013 Y149.063 E5.88439
G1 X140.054 Y148.031 E5.91866
G1 X140.231 Y146.997 E5.95346
G1 X140.509 Y146.028 E5.98691
G1 X140.897 Y145.095 E6.02043
G1 X141.383 Y144.214 E6.05381
G1 X141.966 Y143.393 E6.08722
G1 X142.639 Y142.639 E6.12075
G0 F9000 X142.922 Y142.922
G1 F1800 X143.642 Y142.279 E6.15278
G1 X144.427 Y141.722 E6.18471
G1 X145.269 Y141.257 E6.21662
G1 X146.160 Y140.886 E6.24864
G1 X147.089 Y140.620 E6.28070
G1 X148.160 Y140.437 E6.31675
G1 X180.929 Y140.412 E7.40393
G1 X181.927 Y140.451 E7.43706
G1 X182.913 Y140.621 E7.47026
G1 X183.839 Y140.886 E7.50222
G1 X184.730 Y141.257 E7.53424
G1 X185.572 Y141.722 E7.56615
G1 X186.357 Y142.279 E7.59808
G1 X187.077 Y142.922 E7.63011
G1 X187.720 Y143.642 E7.66213
G1 X188.277 Y144.427 E7.69407
G1 X188.742 Y145.269 E7.72598
G1 X189.113 Y146.160 E7.75800
G1 X189.379 Y147.089 E7.79006
G1 X189.562 Y148.160 E7.82611
G1 X189.588 Y180.933 E8.91342
G1 X189.547 Y181.930 E8.94652
G1 X189.378 Y182.913 E8.97962
G1 X189.113 Y183.839 E9.01157
G1 X188.742 Y184.730 E9.04359
G1 X188.277 Y185.572 E9.07550
G1 X187.720 Y186.357 E9.10744
G1 X187.077 Y187.077 E9.13946
G1 X186.357 Y187.720 E9.17149
G1 X185.572 Y188.277 E9.20342
G1 X184.730 Y188.742 E9.23534
G1 X183.839 Y189.113 E9.26736
G1 X182.910 Y189.379 E9.29942
G1 X181.839 Y189.562 E9.33546
G1 X149.067 Y189.588 E10.42274
G1 X148.069 Y189.547 E10.45588
G1 X147.086 Y189.378 E10.48897
G1 X146.160 Y189.113 E10.52093
G1 X145.269 Y188.742 E10.55295
G1 X144.427 Y188.277 E10.58486
G1 X143.642 Y187.720 E10.61679
G1 X142.922 Y187.077 E10.64882
G1 X142.279 Y186.357 E10.68085
G1 X141.722 Y185.572 E10.71278
G1 X141.257 Y184.730 E10.74469
G1 X140.886 Y183.839 E10.77671
G1 X140.620 Y182.910 E10.80877
G1 X140.437 Y181.839 E10.84482
G1 X140.412 Y149.071 E11.93196
G1 X140.451 Y148.072 E11.96513
G1 X140.621 Y147.086 E11.99833
G1 X140.886 Y146.160 E12.03028
G1 X141.257 Y145.269 E12.06230
G1 X141.722 Y144.427 E12.09422
G1 X142.279 Y143.642 E12.12615
G1 X142.922 Y142.922 E12.15818
G0 F9000 X143.204 Y143.204
G1 F1800 X143.891 Y142.591 E12.18872
G1 X144.639 Y142.060 E12.21916
G1 X145.442 Y141.617 E12.24958
G1 X146.292 Y141.264 E12.28012
G1 X147.177 Y141.010 E12.31067
G1 X148.194 Y140.836 E12.34490
G1 X180.921 Y140.811 E13.43068
G1 X181.885 Y140.849 E13.46269
G1 X182.824 Y141.010 E13.49430
G1 X183.707 Y141.264 E13.52478
G1 X184.557 Y141.617 E13.55532
G1 X185.360 Y142.060 E13.58574
G1 X186.108 Y142.591 E13.61618
G1 X186.795 Y143.204 E13.64672
G1 X187.408 Y143.891 E13.67727
G1 X187.939 Y144.639 E13.70770
G1 X188.382 Y145.442 E13.73813
G1 X188.735 Y146.292 E13.76867
G1 X188.989 Y147.177 E13.79921
G1 X189.163 Y148.194 E13.83344
G1 X189.189 Y180.925 E14.91936
G1 X189.149 Y181.888 E14.95134
G1 X188.989 Y182.824 E14.98284
G1 X188.735 Y183.707 E15.01332
G1 X188.382 Y184.557 E15.04386
G1 X187.939 Y185.360 E15.07429
G1 X187.408 Y186.108 E15.10472
G1 X186.795 Y186.795 E15.13527
G1 X186.108 Y187.408 E15.16581
G1 X185.360 Y187.939 E15.19625
G1 X184.557 Y188.382 E15.22667
G1 X183.707 Y188.735 E15.25721
G1 X182.822 Y188.989 E15.28776
G1 X181.805 Y189.163 E15.32199
G1 X149.075 Y189.189 E16.40787
G1 X148.111 Y189.149 E16.43988
G1 X147.175 Y188.989 E16.47138
G1 X146.292 Y188.735 E16.50187
G1 X145.442 Y188.382 E16.53240
G1 X144.639 Y187.939 E16.56283
G1 X143.891 Y187.408 E16.59326
G1 X143.204 Y186.795 E16.62381
G1 X142.591 Y186.108 E16.65436
G1 X142.060 Y185.360 E16.68479
G1 X141.617 Y184.557 E16.71522
G1 X141.264 Y183.707 E16.74575
G1 X141.010 Y182.822 E16.77630
G1 X140.836 Y181.805 E16.81053
G1 X140.811 Y149.079 E17.89628
G1 X140.849 Y148.114 E17.92832
G1 X141.010 Y147.175 E17.95993
G1 X141.264 Y146.292 E17.99041
G1 X141.617 Y145.442 E18.02095
G1 X142.060 Y144.639 E18.05138
G1 X142.591 Y143.891 E18.08181
G1 X143.204 Y143.204 E18.11236
G0 F9000 X143.487 Y143.487
G1 F1800 X144.140 Y142.904 E18.14140
G1 X144.852 Y142.398 E18.17038
G1 X145.616 Y141.977 E18.19932
G1 X146.424 Y141.641 E18.22835
G1 X147.266 Y141.399 E18.25742
G1 X148.228 Y141.235 E18.28979
G1 X180.914 Y141.210 E19.37422
G1 X181.843 Y141.247 E19.40506
G1 X182.735 Y141.400 E19.43509
G1 X183.575 Y141.641 E19.46408
G1 X184.383 Y141.977 E19.49311
G1 X185.147 Y142.398 E19.52206
G1 X185.859 Y142.904 E19.55104
G1 X186.512 Y143.487 E19.58008
G1 X187.095 Y144.140 E19.60912
G1 X187.601 Y144.852 E19.63810
G1 X188.022 Y145.616 E19.66704
G1 X188.358 Y146.424 E19.69607
G1 X188.600 Y147.266 E19.72514
G1 X188.764 Y148.228 E19.75752
G1 X188.790 Y180.917 E20.84204
G1 X188.752 Y181.846 E20.87289
G1 X188.599 Y182.735 E20.90281
G1 X188.358 Y183.575 E20.93181
G1 X188.022 Y184.383 E20.96084
G1 X187.601 Y185.147 E20.98978
G1 X187.095 Y185.859 E21.01876
G1 X186.512 Y186.512 E21.04780
G1 X185.859 Y187.095 E21.07685
G1 X185.147 Y187.601 E21.10582
G1 X184.383 Y188.022 E21.13477
G1 X183.575 Y188.358 E21.16380
G1 X182.733 Y188.600 E21.19286
G1 X181.771 Y188.764 E21.22524
G1 X149.084 Y188.790 E22.30970
G1 X148.153 Y188.752 E22.34061
G1 X147.264 Y188.599 E22.37054
G1 X146.424 Y188.358 E22.39953
G1 X145.616 Y188.022 E22.42856
G1 X144.852 Y187.601 E22.45750
G1 X144.140 Y187.095 E22.48648
G1 X143.487 Y186.512 E22.51553
G1 X142.904 Y185.859 E22.54457
G1 X142.398 Y185.147 E22.57355
G1 X141.977 Y184.383 E22.60249
G1 X141.641 Y183.575 E22.63152
G1 X141.399 Y182.733 E22.66059
G1 X141.235 Y181.771 E22.69297
G1 X141.210 Y149.087 E23.77732
G1 X141.247 Y148.156 E23.80823
G1 X141.400 Y147.264 E23.83826
G1 X141.641 Y146.424 E23.86725
G1 X141.977 Y145.616 E23.89629
G1 X142.398 Y144.852 E23.92523
G1 X142.904 Y144.140 E23.95421
G1 X143.487 Y143.487 E23.98325
G0 F9000 X143.769 Y143.769
G1 F1800 X144.389 Y143.216 E24.01081
G1 X145.065 Y142.737 E24.03830
G1 X145.789 Y142.337 E24.06574
G1 X146.556 Y142.018 E24.09330
G1 X147.355 Y141.789 E24.12088
G1 X148.262 Y141.634 E24.15140
G1 X180.906 Y141.609 E25.23443
G1 X181.801 Y141.644 E25.26415
G1 X182.646 Y141.789 E25.29260
G1 X183.443 Y142.018 E25.32011
G1 X184.210 Y142.337 E25.34767
G1 X184.934 Y142.737 E25.37511
G1 X185.610 Y143.216 E25.40260
G1 X186.230 Y143.769 E25.43016
G1 X186.783 Y144.389 E25.45772
G1 X187.262 Y145.065 E25.48521
G1 X187.662 Y145.789 E25.51265
G1 X187.981 Y146.556 E25.54021
G1 X188.210 Y147.355 E25.56779
G1 X188.365 Y148.262 E25.59832
G1 X188.391 Y180.909 E26.68144
G1 X188.354 Y181.804 E26.71116
G1 X188.210 Y182.646 E26.73950
G1 X187.981 Y183.443 E26.76702
G1 X187.662 Y184.210 E26.79458
G1 X187.262 Y184.934 E26.82202
G1 X186.783 Y185.610 E26.84951
G1 X186.230 Y186.230 E26.87707
G1 X185.610 Y186.783 E26.90463
G1 X184.934 Y187.262 E26.93212
G1 X184.210 Y187.662 E26.95956
G1 X183.443 Y187.981 E26.98712
G1 X182.644 Y188.210 E27.01470
G1 X181.737 Y188.365 E27.04522
G1 X149.092 Y188.391 E28.12829
G1 X148.195 Y188.354 E28.15807
G1 X147.353 Y188.210 E28.18641
G1 X146.556 Y187.981 E28.21393
G1 X145.789 Y187.662 E28.24148
G1 X145.065 Y187.262 E28.26893
G1 X144.389 Y186.783 E28.29641
G1 X143.769 Y186.230 E28.32398
G1 X143.216 Y185.610 E28.35154
G1 X142.737 Y184.934 E28.37903
G1 X142.337 Y184.210 E28.40647
G1 X142.018 Y183.443 E28.43403
G1 X141.789 Y182.644 E28.46161
G1 X141.634 Y181.737 E28.49213
G1 X141.609 Y149.094 E29.57513
G1 X141.644 Y148.198 E29.60488
G1 X141.789 Y147.353 E29.63332
G1 X142.018 Y146.556 E29.66084
G1 X142.337 Y145.789 E29.68840
G1 X142.737 Y145.065 E29.71584
G1 X143.216 Y144.389 E29.74332
G1 X143.769 Y143.769 E29.77089
G0 F9000 X144.052 Y144.052
G1 F1800 X144.638 Y143.529 E29.79695
G1 X145.277 Y143.075 E29.82295
G1 X145.963 Y142.697 E29.84894
G1 X146.688 Y142.395 E29.87500
G1 X147.444 Y142.178 E29.90109
G1 X148.296 Y142.033 E29.92976
G1 X180.898 Y142.008 E31.01140
G1 X181.759 Y142.042 E31.03999
G1 X182.557 Y142.179 E31.06685
G1 X183.311 Y142.395 E31.09287
G1 X184.036 Y142.697 E31.11893
G1 X184.722 Y143.075 E31.14491
G1 X185.361 Y143.529 E31.17092
G1 X185.947 Y144.052 E31.19698
G1 X186.470 Y144.638 E31.22304
G1 X186.924 Y145.277 E31.24904
G1 X187.302 Y145.963 E31.27503
G1 X187.604 Y146.688 E31.30109
G1 X187.821 Y147.444 E31.32718
G1 X187.966 Y148.296 E31.35585
G1 X187.992 Y180.900 E32.43756
G1 X187.957 Y181.762 E32.46618
G1 X187.820 Y182.557 E32.49294
G1 X187.604 Y183.311 E32.51897
G1 X187.302 Y184.036 E32.54502
G1 X186.924 Y184.722 E32.57101
G1 X186.470 Y185.361 E32.59701
G1 X185.947 Y185.947 E32.62307
G1 X185.361 Y186.470 E32.64913
G1 X184.722 Y186.924 E32.67514
G1 X184.036 Y187.302 E32.70112
G1 X183.311 Y187.604 E32.72718
G1 X182.555 Y187.821 E32.75327
G1 X181.703 Y187.966 E32.78195
G1 X149.100 Y187.992 E33.86362
G1 X148.237 Y187.957 E33.89227
G1 X147.442 Y187.820 E33.91904
G1 X146.688 Y187.604 E33.94506
G1 X145.963 Y187.302 E33.97112
G1 X145.277 Y186.924 E33.99710
G1 X144.638 Y186.470 E34.02311
G1 X144.052 Y185.947 E34.04917
G1 X143.529 Y185.361 E34.07522
G1 X143.075 Y184.722 E34.10123
G1 X142.697 Y184.036 E34.12722
G1 X142.395 Y183.311 E34.15327
G1 X142.178 Y182.555 E34.17937
G1 X142.033 Y181.703 E34.20804
G1 X142.008 Y149.102 E35.28964
G1 X142.042 Y148.240 E35.31827
G1 X142.179 Y147.442 E35.34513
G1 X142.395 Y146.688 E35.37115
G1 X142.697 Y145.963 E35.39721
G1 X143.075 Y145.277 E35.42319
G1 X143.529 Y144.638 E35.44920
G1 X144.052 Y144.052 E35.47526
G0 F9000 X144.335 Y144.335
G1 F1800 X144.887 Y143.841 E35.49983
G1 X145.490 Y143.414 E35.52435
G1 X146.136 Y143.057 E35.54883
G1 X146.820 Y142.773 E35.57341
G1 X147.533 Y142.568 E35.59802
G1 X148.330 Y142.432 E35.62484
G1 X180.890 Y142.407 E36.70509
G1 X181.718 Y142.440 E36.73258
G1 X182.468 Y142.568 E36.75782
G1 X183.179 Y142.773 E36.78237
G1 X183.863 Y143.057 E36.80694
G1 X184.509 Y143.414 E36.83143
G1 X185.112 Y143.841 E36.85594
G1 X185.664 Y144.335 E36.88052
G1 X186.158 Y144.887 E36.90510
G1 X186.585 Y145.490 E36.92961
G1 X186.942 Y146.136 E36.95410
G1 X187.226 Y146.820 E36.97867
G1 X187.431 Y147.533 E37.00328
G1 X187.567 Y148.330 E37.03011
G1 X187.593 Y180.892 E38.11042
G1 X187.559 Y181.720 E38.13791
G1 X187.431 Y182.468 E38.16309
G1 X187.226 Y183.179 E38.18764
G1 X186.942 Y183.863 E38.21221
G1 X186.585 Y184.509 E38.23670
G1 X186.158 Y185.112 E38.26121
G1 X185.664 Y185.664 E38.28579
G1 X185.112 Y186.158 E38.31036
G1 X184.509 Y186.585 E38.33488
G1 X183.863 Y186.942 E38.35936
G1 X183.179 Y187.226 E38.38393
G1 X182.466 Y187.431 E38.40855
G1 X181.669 Y187.567 E38.43537
G1 X149.108 Y187.593 E39.51565
G1 X148.279 Y187.559 E39.54318
G1 X147.531 Y187.431 E39.56835
G1 X146.820 Y187.226 E39.59290
G1 X146.136 Y186.942 E39.61747
G1 X145.490 Y186.585 E39.64196
G1 X144.887 Y186.158 E39.66647
G1 X144.335 Y185.664 E39.69105
G1 X143.841 Y185.112 E39.71563
G1 X143.414 Y184.509 E39.74014
G1 X143.057 Y183.863 E39.76463
G1 X142.773 Y183.179 E39.78920
G1 X142.568 Y182.466 E39.81381
G1 X142.432 Y181.669 E39.84064
G1 X142.407 Y149.110 E40.92085
G1 X142.440 Y148.281 E40.94837
G1 X142.568 Y147.531 E40.97362
G1 X142.773 Y146.820 E40.99817
G1 X143.057 Y146.136 E41.02274
G1 X143.414 Y145.490 E41.04722
G1 X143.841 Y144.887 E41.07174
G1 X144.335 Y144.335 E41.09631
G0 F9000 X144.617 Y144.617
G1 F1800 X145.136 Y144.154 E41.11939
G1 X145.702 Y143.752 E41.14242
G1 X146.310 Y143.417 E41.16545
G1 X146.952 Y143.150 E41.18852
G1 X147.622 Y142.958 E41.21164
G1 X148.364 Y142.831 E41.23662
G1 X180.883 Y142.806 E42.31550
G1 X181.676 Y142.837 E42.34183
G1 X182.379 Y142.958 E42.36550
G1 X183.047 Y143.150 E42.38856
G1 X183.689 Y143.417 E42.41163
G1 X184.297 Y143.752 E42.43466
G1 X184.863 Y144.154 E42.45769
G1 X185.382 Y144.617 E42.48076
G1 X185.845 Y145.136 E42.50384
G1 X186.247 Y145.702 E42.52687
G1 X186.582 Y146.310 E42.54990
G1 X186.849 Y146.952 E42.57297
G1 X187.041 Y147.622 E42.59609
G1 X187.168 Y148.363 E42.62104
G1 X187.194 Y180.884 E43.69999
G1 X187.161 Y181.678 E43.72635
G1 X187.041 Y182.379 E43.74995
G1 X186.849 Y183.047 E43.77301
G1 X186.582 Y183.689 E43.79607
G1 X186.247 Y184.297 E43.81910
G1 X185.845 Y184.863 E43.84214
G1 X185.382 Y185.382 E43.86521
G1 X184.863 Y185.845 E43.88829
G1 X184.297 Y186.247 E43.91132
G1 X183.689 Y186.582 E43.93435
G1 X183.047 Y186.849 E43.95742
G1 X182.377 Y187.041 E43.98054
G1 X181.636 Y187.168 E44.00548
G1 X149.116 Y187.194 E45.08440
G1 X148.321 Y187.161 E45.11080
G1 X147.620 Y187.041 E45.13439
G1 X146.952 Y186.849 E45.15745
G1 X146.310 Y186.582 E45.18052
G1 X145.702 Y186.247 E45.20355
G1 X145.136 Y185.845 E45.22659
G1 X144.617 Y185.382 E45.24966
G1 X144.154 Y184.863 E45.27273
G1 X143.752 Y184.297 E45.29577
G1 X143.417 Y183.689 E45.31880
G1 X143.150 Y183.047 E45.34187
G1 X142.958 Y182.377 E45.36499
G1 X142.831 Y181.635 E45.38997
G1 X142.806 Y149.117 E46.46881
G1 X142.837 Y148.323 E46.49518
G1 X142.958 Y147.620 E46.51884
G1 X143.150 Y146.952 E46.54190
G1 X143.417 Y146.310 E46.56497
G1 X143.752 Y145.702 E46.58800
G1 X144.154 Y145.136 E46.61103
G1 X144.617 Y144.617 E46.63411
G0 F9000 X144.900 Y144.900
G1 F1800 X145.386 Y144.466 E46.65573
G1 X145.915 Y144.091 E46.67724
G1 X146.483 Y143.777 E46.69877
G1 X147.084 Y143.527 E46.72037
G1 X147.710 Y143.347 E46.74198
G1 X148.397 Y143.230 E46.76510
G1 X180.875 Y143.205 E47.84262
G1 X181.634 Y143.235 E47.86782
G1 X182.290 Y143.347 E47.88990
G1 X182.915 Y143.527 E47.91148
G1 X183.516 Y143.777 E47.93308
G1 X184.084 Y144.091 E47.95461
G1 X184.613 Y144.466 E47.97612
G1 X185.099 Y144.900 E47.99774
G1 X185.533 Y145.386 E48.01936
G1 X185.908 Y145.915 E48.04087
G1 X186.222 Y146.483 E48.06240
G1 X186.472 Y147.084 E48.08400
G1 X186.652 Y147.710 E48.10561
G1 X186.769 Y148.397 E48.12873
G1 X186.795 Y180.876 E49.20628
G1 X186.764 Y181.636 E49.23152
G1 X186.652 Y182.290 E49.25353
G1 X186.472 Y182.915 E49.27511
G1 X186.222 Y183.516 E49.29671
G1 X185.908 Y184.084 E49.31824
G1 X185.533 Y184.613 E49.33975
G1 X185.099 Y185.099 E49.36137
G1 X184.613 Y185.533 E49.38299
G1 X184.084 Y185.908 E49.40450
G1 X183.516 Y186.222 E49.42603
G1 X182.915 Y186.472 E49.44763
G1 X182.289 Y186.652 E49.46924
